X: 73
T:Dark Lowers the Night
C:P.-M. J. Mackay
S:Scots Guards pipe tune book
G:retreat march
M:3/4
L:1/8
Q:1/4=76
K:BMin
d>c B2 B>c|d>e f2 f2|ga  f2 e>d|cB c4     |
d>c B2 B>c|d>e f2 f2|ga  f2 f>e|dc c<B B2:|
a>g f2 f2 |g2  a2 a2|a>g f2 e>d|cB c4     |
d>c B2 B>c|d>e f2 f2|ga  f2 f>e|dc c<B B2:|

while this one is a pipe adaptation of a Gaelic song adaptation of
a Northumbrian tune:

